X: 40887
T: Trick Or Treat
R: jig
M: 6/8
K: Dmajor
ADd BAG|ADA GFG|ADd BAG|Ade fdB|ADd BAG|
ADA GDG|1 FDd Bcd|efg Bcd:|2 FDd Bdf|eaf ecA||
K:C
FEF DA,D|EDE CG,C|1 FED FGA|GcA GEC:|2 DFA Gce|dad cgc||

